groups/sulfur/carbothioic_O-acid.svg

<?xml version='1.0' encoding='iso-8859-1'?>
<svg version='1.1' baseProfile='full'
              xmlns='http://www.w3.org/2000/svg'
                      xmlns:rdkit='http://www.rdkit.org/xml'
                      xmlns:xlink='http://www.w3.org/1999/xlink'
                  xml:space='preserve'
width='256px' height='256px' viewBox='0 0 256 256'>
<!-- END OF HEADER -->
<rect style='opacity:1.0;fill:#FFFFFF;stroke:none' width='256.0' height='256.0' x='0.0' y='0.0'> </rect>
<path class='bond-0 atom-0 atom-1' d='M 41.9,181.8 L 120.2,136.9' style='fill:none;fill-rule:evenodd;stroke:#000000;stroke-width:2.0px;stroke-linecap:butt;stroke-linejoin:miter;stroke-opacity:1' />
<path class='bond-1 atom-1 atom-2' d='M 127.0,140.9 L 127.2,69.7' style='fill:none;fill-rule:evenodd;stroke:#000000;stroke-width:2.0px;stroke-linecap:butt;stroke-linejoin:miter;stroke-opacity:1' />
<path class='bond-1 atom-1 atom-2' d='M 113.5,140.8 L 113.7,69.6' style='fill:none;fill-rule:evenodd;stroke:#000000;stroke-width:2.0px;stroke-linecap:butt;stroke-linejoin:miter;stroke-opacity:1' />
<path class='bond-2 atom-1 atom-3' d='M 120.2,136.9 L 183.3,173.6' style='fill:none;fill-rule:evenodd;stroke:#000000;stroke-width:2.0px;stroke-linecap:butt;stroke-linejoin:miter;stroke-opacity:1' />
<path d='M 116.3,139.2 L 120.2,136.9 L 123.4,138.8' style='fill:none;stroke:#000000;stroke-width:2.0px;stroke-linecap:butt;stroke-linejoin:miter;stroke-miterlimit:10;stroke-opacity:1;' />
<path class='atom-1' d='M64.3367,220.923 C67.2737,219.242 65.0318,215.326 62.0948,217.007 C59.1578,218.688 56.9159,214.772 59.8529,213.091 C62.7899,211.409 60.548,207.493 57.611,209.175 C54.674,210.856 52.4321,206.94 55.3691,205.259 C58.3061,203.577 56.0641,199.661 53.1272,201.342 C50.1902,203.024 47.9483,199.108 50.8853,197.426 C53.8222,195.745 51.5803,191.829 48.6433,193.51 C45.7064,195.192 43.4644,191.275 46.4014,189.594 C49.3384,187.913 47.0965,183.997 44.1595,185.678 C41.2225,187.359 38.9806,183.443 41.9176,181.762 C44.8546,180.08 42.6127,176.164 39.6757,177.846 C36.7387,179.527 34.4968,175.611 37.4338,173.93 C40.3707,172.248 38.1288,168.332 35.1918,170.013 C32.2549,171.695 30.013,167.779 32.9499,166.097 C35.8869,164.416 33.645,160.5 30.708,162.181 C27.771,163.863 25.5291,159.946 28.4661,158.265 C31.4031,156.584 29.1612,152.668 26.2242,154.349 C23.2872,156.03 21.0453,152.114 23.9823,150.433 C26.9193,148.751 24.6773,144.835 21.7404,146.517 C18.8034,148.198 16.5615,144.282 19.4984,142.6' style='fill:none;stroke:#7F7F7F;stroke-width:2.0px;stroke-linecap:butt;stroke-linejoin:miter;stroke-opacity:1' />
<text x='108.6' y='66.7' class='atom-2' style='font-size:40px;font-style:normal;font-weight:normal;fill-opacity:1;stroke:none;font-family:sans-serif;text-anchor:start;fill:#000000' >S</text>
<text x='186.2' y='202.3' class='atom-3' style='font-size:40px;font-style:normal;font-weight:normal;fill-opacity:1;stroke:none;font-family:sans-serif;text-anchor:start;fill:#000000' >O</text>
<text x='213.8' y='202.3' class='atom-3' style='font-size:40px;font-style:normal;font-weight:normal;fill-opacity:1;stroke:none;font-family:sans-serif;text-anchor:start;fill:#000000' >H</text>
</svg>

<svg height="256" viewBox="0 0 256 256" width="256" xmlns="http://www.w3.org/2000/svg"><path d="m0 0h256v256h-256z" fill="#fff"/><g fill="none" stroke-width="2"><path d="m41.9 181.8 78.3-44.9" stroke="#000"/><path d="m127 140.9.2-71.2" stroke="#000"/><path d="m113.5 140.8.2-71.2" stroke="#000"/><path d="m120.2 136.9 63.1 36.7" stroke="#000"/><path d="m116.3 139.2 3.9-2.3 3.2 1.9" stroke="#000" stroke-miterlimit="10"/><path d="m64.337 220.923c2.937-1.681.695-5.597-2.242-3.916s-5.179-2.235-2.242-3.916c2.937-1.682.695-5.598-2.242-3.916-2.937 1.681-5.179-2.235-2.242-3.916 2.937-1.682.695-5.598-2.242-3.917-2.937 1.682-5.179-2.234-2.242-3.916 2.937-1.681.695-5.597-2.242-3.916-2.937 1.682-5.179-2.235-2.242-3.916s.696-5.597-2.241-3.916-5.179-2.235-2.242-3.916c2.937-1.682.695-5.598-2.242-3.916-2.937 1.681-5.179-2.235-2.242-3.916 2.937-1.682.695-5.598-2.242-3.917-2.937 1.682-5.179-2.234-2.242-3.916 2.937-1.681.695-5.597-2.242-3.916-2.937 1.682-5.179-2.235-2.242-3.916s.695-5.597-2.242-3.916-5.179-2.235-2.242-3.916c2.937-1.682.695-5.598-2.242-3.916-2.937 1.681-5.178-2.235-2.242-3.917" stroke="#7f7f7f"/></g><text font-family="sans-serif" font-size="40" x="108.6" y="66.7">S</text><text font-family="sans-serif" font-size="40" x="186.2" y="202.3">O</text><text font-family="sans-serif" font-size="40" x="213.8" y="202.3">H</text></svg>
